X: 0923
T: SWISS GUARDS' MARCH
B: Oliver Ditson "The Boston Collection of Instrumental Music" 1910 p.92 #3
F: http://conquest.imslp.info/files/imglnks/usimg/8/8f/IMSLP175643-PMLP309456-bostoncollection00bost_bw.pdf
%: 2012 John Chambers <jc:trillian.mit.edu>
M: 4/4
L: 1/8
K: D
|:\
D4 EDGF | F4 GFBA | A3A B2c2 | d2D>D D2de |\
f2f>f fagf | e2e>e e2d2 | (3cde (3fed c2B2 | A2A>A A2z2 :|
|:\
e2e>e e2(3fed | e2e>e e2fg | aafg aagf | e2e>e e2z2 |\
D4 EDGF | F4 GFBA | B3g fedc | d2d>d d2z2 :|

%%sep 1 1 500
%%sep 1 1 500
